icons/nose.svg

<svg width="48" height="48" viewBox="0 0 48 48" fill="none" xmlns="http://www.w3.org/2000/svg">
<path d="M30.4035 5.08497C30.9088 5.30778 31.1378 5.89807 30.915 6.40341L30 5.99998C30.915 6.40341 30.9151 6.40318 30.915 6.40341L30.9145 6.40457L30.9095 6.41599L30.8946 6.44948C30.8816 6.47865 30.8624 6.52139 30.8373 6.57695C30.7871 6.68808 30.7131 6.85056 30.6168 7.05845C30.424 7.47417 30.1417 8.07182 29.7815 8.80394C29.0613 10.2673 28.0274 12.2722 26.7725 14.4375C24.2893 18.7222 20.8478 23.8016 17.1779 26.4468L17.1762 26.4481C13.3194 29.2159 12.5743 32.2502 13.1976 34.4373C13.8393 36.6893 15.9969 38.3725 18.6437 38.3725H19.1156C19.4217 37.306 20.2196 36.275 21.5774 35.6419C23.1162 34.9243 25.2972 34.7469 28.2261 35.4267C28.7641 35.5515 29.099 36.0889 28.9741 36.6268C28.8493 37.1648 28.3119 37.4997 27.7739 37.3749C25.1029 36.7549 23.4172 36.9907 22.4227 37.4545C21.8795 37.7077 21.5215 38.0367 21.2969 38.3725H21.8726C24.4282 38.3725 26.5 40.4443 26.5 43H24.5C24.5 41.5489 23.3237 40.3725 21.8726 40.3725H18.6437C15.139 40.3725 12.1703 38.1304 11.2741 34.9854C10.3595 31.7759 11.6647 27.9421 16.0091 24.8239C19.3008 22.451 22.5625 17.7129 25.0421 13.4346C26.2687 11.3182 27.2812 9.35506 27.987 7.92083C28.3397 7.20413 28.6153 6.62058 28.8022 6.21731C28.8957 6.0157 28.967 5.85922 29.0146 5.75378C29.0384 5.70106 29.0563 5.6611 29.0681 5.63465L29.0812 5.60519L29.0849 5.59672C29.3078 5.09138 29.8981 4.86216 30.4035 5.08497Z" fill="black"/>
<path d="M32.5289 39.8487C33.9392 38.9698 35.2367 37.0814 35.7557 34.9909C36.2866 32.8525 36.0417 30.3276 34.0958 28.3064L32.655 29.6935C34.0101 31.101 34.2236 32.8617 33.8147 34.509C33.3938 36.2042 32.3531 37.6016 31.4711 38.1513L32.5289 39.8487Z" fill="black"/>
</svg>

<svg
  xmlns="http://www.w3.org/2000/svg"
  width="24"
  height="24"
  viewBox="0 0 24 24"
  fill="none"
  stroke="currentColor"
  stroke-width="2"
  stroke-linecap="round"
  stroke-linejoin="round"
>
  <path d="M30.404 5.085a1 1 0 0 1 .511 1.318L30 6l.915.403v.002l-.005.011-.015.033a29 29 0 0 1-.278.61 95.494 95.494 0 0 1-3.844 7.38c-2.484 4.283-5.925 9.363-9.595 12.008l-.002.001c-3.857 2.768-4.602 5.802-3.978 7.99.641 2.251 2.799 3.935 5.446 3.935h.472c.306-1.067 1.104-2.098 2.461-2.731 1.54-.718 3.72-.895 6.65-.215a1 1 0 1 1-.453 1.948c-2.671-.62-4.357-.384-5.351.08-.543.253-.901.582-1.126.918h.576A4.627 4.627 0 0 1 26.5 43h-2a2.627 2.627 0 0 0-2.627-2.627h-3.23c-3.504 0-6.473-2.243-7.369-5.388-.914-3.21.39-7.043 4.735-10.161 3.292-2.373 6.554-7.111 9.033-11.39a93 93 0 0 0 3.76-7.217 51 51 0 0 0 .266-.582l.013-.03.004-.008a1 1 0 0 1 1.319-.512" />
  <path d="M32.529 39.849c1.41-.88 2.708-2.768 3.227-4.858.53-2.139.286-4.663-1.66-6.685l-1.441 1.387c1.355 1.408 1.569 3.169 1.16 4.816-.421 1.695-1.462 3.093-2.344 3.642z" />
</svg>
